assets/icons/qvision/system_update_alt.svg

<svg xmlns="http://www.w3.org/2000/svg" height="24" viewBox="0 0 24 24" width="24"><path d="M0 .5h24v24H0z" fill="none"/><path d="M12 16.5l4-4h-3v-9h-2v9H8l4 4zm9-13h-6v1.99h6v14.03H3V5.49h6V3.5H3c-1.1 0-2 .9-2 2v14c0 1.1.9 2 2 2h18c1.1 0 2-.9 2-2v-14c0-1.1-.9-2-2-2z"/></svg>

<svg width="24" height="24" viewBox="0 0 24 24" fill="none" xmlns="http://www.w3.org/2000/svg">
<g clip-path="url(#clip0_147_4836)">
<path d="M12 16.5L16 12.5H13V3.5H11V12.5H8L12 16.5ZM21 3.5H15V5.49H21V19.52H3V5.49H9V3.5H3C1.9 3.5 1 4.4 1 5.5V19.5C1 20.6 1.9 21.5 3 21.5H21C22.1 21.5 23 20.6 23 19.5V5.5C23 4.4 22.1 3.5 21 3.5Z" fill="#323232"/>
</g>
<defs>
<clipPath id="clip0_147_4836">
<rect width="24" height="24" fill="white"/>
</clipPath>
</defs>
</svg>
